X:1
T: Air from ``La Somnambula''
C:
R:Jig
Q:180
K:D
M:6/8
L:1/16
|:de|d2c2B2 d4e2|d2c2B2 d4c2|B4B2 B2A2B2|c2A2A2 A2d2e2|
d2c2B2 d4e2|d2c2B2 d4c2|B4B2 c2A2A2|A2G2G2 G4D2|
D2F2A2 c4e2|e2d2c2 B4d2|d2c2B2 A4c2|c2B2A2 G4D2|
D2F2A2 c4e2|e2d2c2 B4d2|d2c2B2 A4B2|G6:|
